X: 56
T: Ghost Dance Song (d)
N: Derived from pawnee56.krn
O: Oklahoma, U.S.A.
N: from Pawnee Music by Frances Densmore, 1926
Z: transcribed to **kern format by David Huron, August 2000
C: Skidi and Chaui Bands, 1919
L: 1/8
M: 3/4
Q: 1/4=88
K: G clef=bass
%%linebreak <none>
B,> B, B,> B, B, z | 
B, B, B, B, B, z[M:2/4] | 
B, G, G,3/ F,/ | 
G,> F, G,3/ F,/ | 
E,2E,3/ ^D,/ | 
E,> ^D, E, z | 
B, G, G,3/ F,/ | 
G,> F, G,3/ F,/ | 
E,2E,3/ ^D,/ | 
E,> ^D, E, z[M:3/4] | 
E,> E, E,> ^D, E, z | 
E,> E, E,> ^D, E, z |]  



